Newaita-dark/actions/16/view-private.svg

<svg height="16" viewBox="0 0 16 16" width="16" xmlns="http://www.w3.org/2000/svg"><g fill="#e0e0e0"><path d="m4.960938 9.054688c-1.28125 0-2.316407 1.035156-2.316407 2.316406s1.035157 2.316406 2.316407 2.316406 2.316406-1.035156 2.316406-2.316406-1.035156-2.316406-2.316406-2.316406zm0 1.324218c.550781 0 .992187.441406.992187.992188 0 .550781-.441406.992187-.992187.992187-.550782 0-.992188-.441406-.992188-.992187 0-.550782.441406-.992188.992188-.992188zm0 0"/><path d="m1.984375 10.378906h1.324219c.363281 0 .660156.296875.660156.660156 0 .367188-.296875.664063-.660156.664063h-1.324219c-.363281 0-.660156-.296875-.660156-.664063 0-.363281.296875-.660156.660156-.660156zm0 0"/><path d="m12.570312 10.378906h1.320313c.367187 0 .664063.296875.664063.660156 0 .367188-.296876.664063-.664063.664063h-1.320313c-.367187 0-.664062-.296875-.664062-.664063 0-.363281.296875-.660156.664062-.660156zm0 0"/><path d="m6.285156 10.046875h3.308594v1.324219h-3.308594zm0 0"/><path d="m10.914062 9.054688c-1.28125 0-2.3125 1.035156-2.3125 2.316406s1.03125 2.316406 2.3125 2.316406c1.285157 0 2.316407-1.035156 2.316407-2.316406s-1.03125-2.316406-2.316407-2.316406zm0 1.324218c.550782 0 .992188.441406.992188.992188 0 .550781-.441406.992187-.992188.992187-.546874 0-.992187-.441406-.992187-.992187 0-.550782.445313-.992188.992187-.992188zm0 0"/><path d="m1.984375 7.070312h11.90625c.367187 0 .664063.296876.664063.664063 0 .363281-.296876.660156-.664063.660156h-11.90625c-.363281 0-.660156-.296875-.660156-.660156 0-.367187.296875-.664063.660156-.664063zm0 0"/><path d="m9.917969 2.445312c-.128907 0-.253907.039063-.359375.109376l-1.621094 1.078124-1.617188-1.078124c-.175781-.117188-.394531-.144532-.59375-.070313-.199218.070313-.347656.234375-.40625.4375l-1.324218 4.628906c-.066406.226563-.007813.476563.15625.648438.164062.167969.410156.238281.636718.179687.230469-.058594.414063-.234375.476563-.464844l1.074219-3.765624 1.234375.824218c.21875.148438.507812.148438.730469 0l1.234374-.824218 1.074219 3.765624c.0625.230469.242188.40625.472657.464844.230468.058594.472656-.011718.636718-.179687.164063-.171875.226563-.421875.15625-.648438l-1.324218-4.628906c-.082032-.285156-.339844-.480469-.636719-.476563zm0 0"/></g></svg>

<?xml version="1.0" encoding="UTF-8"?>
<svg xmlns="http://www.w3.org/2000/svg" xmlns:xlink="http://www.w3.org/1999/xlink" width="16px" height="16px" viewBox="0 0 16 16" version="1.1">
<g id="surface1">
<path style=" stroke:none;fill-rule:nonzero;fill:rgb(87.843138%,87.843138%,87.843138%);fill-opacity:1;" d="M 4.960938 9.054688 C 3.679688 9.054688 2.644531 10.089844 2.644531 11.371094 C 2.644531 12.652344 3.679688 13.6875 4.960938 13.6875 C 6.242188 13.6875 7.277344 12.652344 7.277344 11.371094 C 7.277344 10.089844 6.242188 9.054688 4.960938 9.054688 Z M 4.960938 10.378906 C 5.511719 10.378906 5.953125 10.820312 5.953125 11.371094 C 5.953125 11.921875 5.511719 12.363281 4.960938 12.363281 C 4.410156 12.363281 3.96875 11.921875 3.96875 11.371094 C 3.96875 10.820312 4.410156 10.378906 4.960938 10.378906 Z M 4.960938 10.378906 "/>
<path style=" stroke:none;fill-rule:nonzero;fill:rgb(87.843138%,87.843138%,87.843138%);fill-opacity:1;" d="M 1.984375 10.378906 L 3.308594 10.378906 C 3.671875 10.378906 3.96875 10.675781 3.96875 11.039062 C 3.96875 11.40625 3.671875 11.703125 3.308594 11.703125 L 1.984375 11.703125 C 1.621094 11.703125 1.324219 11.40625 1.324219 11.039062 C 1.324219 10.675781 1.621094 10.378906 1.984375 10.378906 Z M 1.984375 10.378906 "/>
<path style=" stroke:none;fill-rule:nonzero;fill:rgb(87.843138%,87.843138%,87.843138%);fill-opacity:1;" d="M 12.570312 10.378906 L 13.890625 10.378906 C 14.257812 10.378906 14.554688 10.675781 14.554688 11.039062 C 14.554688 11.40625 14.257812 11.703125 13.890625 11.703125 L 12.570312 11.703125 C 12.203125 11.703125 11.90625 11.40625 11.90625 11.039062 C 11.90625 10.675781 12.203125 10.378906 12.570312 10.378906 Z M 12.570312 10.378906 "/>
<path style=" stroke:none;fill-rule:nonzero;fill:rgb(87.843138%,87.843138%,87.843138%);fill-opacity:1;" d="M 6.285156 10.046875 L 9.59375 10.046875 L 9.59375 11.371094 L 6.285156 11.371094 Z M 6.285156 10.046875 "/>
<path style=" stroke:none;fill-rule:nonzero;fill:rgb(87.843138%,87.843138%,87.843138%);fill-opacity:1;" d="M 10.914062 9.054688 C 9.632812 9.054688 8.601562 10.089844 8.601562 11.371094 C 8.601562 12.652344 9.632812 13.6875 10.914062 13.6875 C 12.199219 13.6875 13.230469 12.652344 13.230469 11.371094 C 13.230469 10.089844 12.199219 9.054688 10.914062 9.054688 Z M 10.914062 10.378906 C 11.464844 10.378906 11.90625 10.820312 11.90625 11.371094 C 11.90625 11.921875 11.464844 12.363281 10.914062 12.363281 C 10.367188 12.363281 9.921875 11.921875 9.921875 11.371094 C 9.921875 10.820312 10.367188 10.378906 10.914062 10.378906 Z M 10.914062 10.378906 "/>
<path style=" stroke:none;fill-rule:nonzero;fill:rgb(87.843138%,87.843138%,87.843138%);fill-opacity:1;" d="M 1.984375 7.070312 L 13.890625 7.070312 C 14.257812 7.070312 14.554688 7.367188 14.554688 7.734375 C 14.554688 8.097656 14.257812 8.394531 13.890625 8.394531 L 1.984375 8.394531 C 1.621094 8.394531 1.324219 8.097656 1.324219 7.734375 C 1.324219 7.367188 1.621094 7.070312 1.984375 7.070312 Z M 1.984375 7.070312 "/>
<path style=" stroke:none;fill-rule:nonzero;fill:rgb(87.843138%,87.843138%,87.843138%);fill-opacity:1;" d="M 9.917969 2.445312 C 9.789062 2.445312 9.664062 2.484375 9.558594 2.554688 L 7.9375 3.632812 L 6.320312 2.554688 C 6.144531 2.4375 5.925781 2.410156 5.726562 2.484375 C 5.527344 2.554688 5.378906 2.71875 5.320312 2.921875 L 3.996094 7.550781 C 3.929688 7.777344 3.988281 8.027344 4.152344 8.199219 C 4.316406 8.367188 4.5625 8.4375 4.789062 8.378906 C 5.019531 8.320312 5.203125 8.144531 5.265625 7.914062 L 6.339844 4.148438 L 7.574219 4.972656 C 7.792969 5.121094 8.082031 5.121094 8.304688 4.972656 L 9.539062 4.148438 L 10.613281 7.914062 C 10.675781 8.144531 10.855469 8.320312 11.085938 8.378906 C 11.316406 8.4375 11.558594 8.367188 11.722656 8.199219 C 11.886719 8.027344 11.949219 7.777344 11.878906 7.550781 L 10.554688 2.921875 C 10.472656 2.636719 10.214844 2.441406 9.917969 2.445312 Z M 9.917969 2.445312 "/>
</g>
</svg>
